svg/crypto/BNB_fill.svg

<?xml version="1.0" encoding="UTF-8"?>
<svg width="24px" height="24px" viewBox="0 0 24 24" version="1.1" xmlns="http://www.w3.org/2000/svg" xmlns:xlink="http://www.w3.org/1999/xlink">
    <title>BNB_fill</title>
    <g id="页面-1" stroke="none" stroke-width="1" fill="none" fill-rule="evenodd">
        <g id="Business" transform="translate(-192.000000, -432.000000)" fill-rule="nonzero">
            <g id="BNB_fill" transform="translate(192.000000, 432.000000)">
                <path d="M24,0 L24,24 L0,24 L0,0 L24,0 Z M12.5934901,23.257841 L12.5819402,23.2595131 L12.5108777,23.2950439 L12.4918791,23.2987469 L12.4918791,23.2987469 L12.4767152,23.2950439 L12.4056548,23.2595131 C12.3958229,23.2563662 12.3870493,23.2590235 12.3821421,23.2649074 L12.3780323,23.275831 L12.360941,23.7031097 L12.3658947,23.7234994 L12.3769048,23.7357139 L12.4804777,23.8096931 L12.4953491,23.8136134 L12.4953491,23.8136134 L12.5071152,23.8096931 L12.6106902,23.7357139 L12.6232938,23.7196733 L12.6232938,23.7196733 L12.6266527,23.7031097 L12.609561,23.275831 C12.6075724,23.2657013 12.6010112,23.2592993 12.5934901,23.257841 L12.5934901,23.257841 Z M12.8583906,23.1452862 L12.8445485,23.1473072 L12.6598443,23.2396597 L12.6498822,23.2499052 L12.6498822,23.2499052 L12.6471943,23.2611114 L12.6650943,23.6906389 L12.6699349,23.7034178 L12.6699349,23.7034178 L12.678386,23.7104931 L12.8793402,23.8032389 C12.8914285,23.8068999 12.9022333,23.8029875 12.9078286,23.7952264 L12.9118235,23.7811639 L12.8776777,23.1665331 C12.8752882,23.1545897 12.8674102,23.1470016 12.8583906,23.1452862 L12.8583906,23.1452862 Z M12.1430473,23.1473072 C12.1332178,23.1423925 12.1221763,23.1452606 12.1156365,23.1525954 L12.1099173,23.1665331 L12.0757714,23.7811639 C12.0751323,23.7926639 12.0828099,23.8018602 12.0926481,23.8045676 L12.108256,23.8032389 L12.3092106,23.7104931 L12.3186497,23.7024347 L12.3186497,23.7024347 L12.3225043,23.6906389 L12.340401,23.2611114 L12.337245,23.2485176 L12.337245,23.2485176 L12.3277531,23.2396597 L12.1430473,23.1473072 Z" id="MingCute" fill-rule="nonzero"></path>
                <path d="M14.8661,19.3452 C15.1422,19.8235 14.9784,20.435 14.5001,20.7112 L13.25,21.4329 C12.4765,21.8795 11.5235,21.8795 10.75,21.4329 L9.5,20.7112 C9.02171,20.435 8.85783,19.8235 9.13397,19.3452 C9.41012,18.8669 10.0217,18.703 10.5,18.9791 L11.75,19.7008 C11.9047,19.7902 12.0953,19.7902 12.25,19.7008 L13.5001,18.9791 C13.9784,18.703 14.59,18.8669 14.8661,19.3452 Z M19.7943,11.1186 C20.3466,11.1186 20.7943,11.5663 20.7943,12.1186 L20.7943,15.6339 C20.7943,16.527 20.3178,17.3523 19.5443,17.7989 L16.5001,19.5565 C16.0218,19.8326 15.4102,19.6688 15.1341,19.1905 C14.8579,18.7122 15.0218,18.1006 15.5001,17.8244 L18.5443,16.0669 C18.699,15.9776 18.7943,15.8125 18.7943,15.6339 L18.7943,12.1186 C18.7943,11.5663 19.242,11.1186 19.7943,11.1186 Z M4.20581,11.1187 C4.7581,11.1187 5.20581,11.5664 5.20581,12.1187 L5.20581,15.6339 C5.20581,15.8125 5.30111,15.9776 5.45581,16.0669 L8.5,17.8244 C8.97829,18.1006 9.14217,18.7122 8.86602,19.1905 C8.58988,19.6688 7.97829,19.8326 7.5,19.5565 L4.45581,17.7989 C3.68231,17.3523 3.20581,16.527 3.20581,15.6339 L3.20581,12.1187 C3.20581,11.5664 3.65353,11.1187 4.20581,11.1187 Z M15.6249578,7.46450992 L15.7436,7.52187 L17.2566,8.38045 C17.5369556,8.53952556 17.7212321,8.82242136 17.7568445,9.13799579 L17.7631278,9.25769 L17.75,10.9972 C17.7476889,11.3124 17.5970716,11.6054765 17.3480137,11.7912368 L17.2501,11.8557 L14.5,13.4435 L14.5,16.6201 C14.5,16.9354778 14.3514568,17.2298383 14.1035336,17.4174267 L14.006,17.4826 L12.506,18.3626 C12.23265,18.5229875 11.9020313,18.5430359 11.6142971,18.4227453 L11.4939,18.3626 L9.99395,17.4826 C9.72195,17.3230444 9.54320827,17.0459975 9.50684591,16.737214 L9.49998,16.6201 L9.49998,13.4434 L6.74998,11.8557 C6.47702889,11.6981 6.2964037,11.4225346 6.25774527,11.1141966 L6.25,10.9972 L6.23679284,9.25768 C6.23440235,8.93532444 6.38727532,8.63425481 6.6428065,8.44564082 L6.74334,8.38036 L8.2565,7.52184 C8.52635,7.3687325 8.8494875,7.35068125 9.13177508,7.46733119 L9.24998,7.52557 L12,9.11331 L14.7501,7.52558 C15.018725,7.37043375 15.3417859,7.34996094 15.6249578,7.46450992 Z M17.6292,13.2697 L17.6292,14.6727 C17.6292,15.03 17.4386,15.3601 17.1292,15.5388 L15.9141,16.2403 C15.7141,16.3558 15.4641,16.2114 15.4641,15.9805 L15.4641,14.5774 C15.4641,14.2202 15.6547,13.89 15.9641,13.7114 L17.1792,13.0099 C17.3792,12.8944 17.6292,13.0388 17.6292,13.2697 Z M6.75965,12.9828709 L6.82085,13.0099 L8.03591,13.7114 C8.31093222,13.8701556 8.49208778,14.1486938 8.52894923,14.4595043 L8.53591,14.5774 L8.53591,15.9805 C8.53591,16.18831 8.33341,16.325974 8.14711,16.2673021 L8.08591,16.2403 L6.87085,15.5388 C6.59582778,15.3799556 6.41467222,15.1014864 6.37781077,14.7906222 L6.37085,14.6727 L6.37085,13.2697 C6.37085,13.0849 6.53085,12.955588 6.69725,12.9703912 L6.75965,12.9828709 Z M18.2493,5.45321 L19.5443,6.20085 C20.3178,6.64743 20.7943,7.47275 20.7943,8.36591 L20.7943,9.80922 C20.7943,10.3615 20.3466,10.8092 19.7943,10.8092 C19.242,10.8092 18.7943,10.3615 18.7943,9.80922 L18.7943,8.36591 C18.7943,8.18728 18.699,8.02221 18.5443,7.9329 L17.2493,7.18527 C16.771,6.90912 16.6072,6.29753 16.8833,5.81924 C17.1595,5.34095 17.771,5.17707 18.2493,5.45321 Z M7.07186,5.84517 C7.348,6.32346 7.18412,6.93505 6.70583,7.21119 L5.45581,7.93289 C5.30111,8.02221 5.20581,8.18727 5.20581,8.36591 L5.20581,9.80931 C5.20581,10.3616 4.7581,10.8093 4.20581,10.8093 C3.65353,10.8093 3.20581,10.3616 3.20581,9.80931 L3.20581,8.36591 C3.20581,7.47274 3.68231,6.64743 4.45581,6.20084 L5.70583,5.47914 C6.18412,5.203 6.79572,5.36688 7.07186,5.84517 Z M12.5,5.78876 L13.7151,6.49028 C13.9151,6.60575 13.9151,6.89443 13.7151,7.0099 L12.5,7.71141 C12.1906,7.89005 11.8094,7.89005 11.5,7.71141 L10.285,7.00989 C10.085,6.89442 10.085,6.60574 10.285,6.49027 L11.5,5.78876 C11.8094,5.61013 12.1906,5.61013 12.5,5.78876 Z M13.25,2.56687 L16.2943,4.32449 C16.7726,4.60063 16.9365,5.21222 16.6604,5.69052 C16.3842,6.16881 15.7726,6.33268 15.2943,6.05654 L12.25,4.29892 C12.0953,4.2096 11.9047,4.2096 11.75,4.29892 L8.70583,6.05649 C8.22754,6.33264 7.61595,6.16876 7.33981,5.69047 C7.06366,5.21218 7.22754,4.60059 7.70583,4.32444 L10.75,2.56687 C11.5235,2.12029 12.4765,2.12029 13.25,2.56687 Z" id="形状" fill="#09244B"></path>
            </g>
        </g>
    </g>
</svg>

<svg xmlns="http://www.w3.org/2000/svg" width="24" height="24"><g fill="none" fill-rule="nonzero"><path d="M24 0v24H0V0h24ZM12.593 23.258l-.011.002-.071.035-.02.004-.014-.004-.071-.035c-.01-.004-.019-.001-.024.005l-.004.01-.017.428.005.02.01.013.104.074.015.004.012-.004.104-.074.012-.016.004-.017-.017-.427c-.002-.01-.009-.017-.017-.018Zm.265-.113-.013.002-.185.093-.01.01-.003.011.018.43.005.012.008.007.201.093c.012.004.023 0 .029-.008l.004-.014-.034-.614c-.003-.012-.01-.02-.02-.022Zm-.715.002a.023.023 0 0 0-.027.006l-.006.014-.034.614c0 .012.007.02.017.024l.015-.002.201-.093.01-.008.004-.011.017-.43-.003-.012-.01-.01-.184-.092Z"/><path fill="#09244B" d="M14.866 19.345a1 1 0 0 1-.366 1.366l-1.25.722a2.5 2.5 0 0 1-2.5 0L9.5 20.71a1 1 0 0 1 1-1.732l1.25.722a.5.5 0 0 0 .5 0l1.25-.722a1 1 0 0 1 1.366.366Zm4.928-8.226a1 1 0 0 1 1 1v3.515a2.5 2.5 0 0 1-1.25 2.165L16.5 19.557a1 1 0 1 1-1-1.733l3.044-1.757a.5.5 0 0 0 .25-.433v-3.515a1 1 0 0 1 1-1Zm-15.588 0a1 1 0 0 1 1 1v3.515a.5.5 0 0 0 .25.433L8.5 17.824a1 1 0 0 1-1 1.732L4.456 17.8a2.5 2.5 0 0 1-1.25-2.165v-3.515a1 1 0 0 1 1-1Zm11.419-3.654.119.057 1.513.858a1 1 0 0 1 .5.758l.006.12-.013 1.74a1 1 0 0 1-.402.793l-.098.065-2.75 1.588v3.176a1 1 0 0 1-.396.797l-.098.066-1.5.88a1 1 0 0 1-.892.06l-.12-.06-1.5-.88a1 1 0 0 1-.487-.746L9.5 16.62v-3.177l-2.75-1.587a1 1 0 0 1-.492-.742l-.008-.117-.013-1.74a1 1 0 0 1 .406-.811l.1-.066 1.514-.858a1 1 0 0 1 .875-.055l.118.059L12 9.113l2.75-1.587a1 1 0 0 1 .875-.061Zm2.004 5.805v1.403a1 1 0 0 1-.5.866l-1.215.701a.3.3 0 0 1-.45-.26v-1.403a1 1 0 0 1 .5-.866l1.215-.701a.3.3 0 0 1 .45.26Zm-10.87-.287.062.027 1.215.701a1 1 0 0 1 .493.749l.007.117v1.403a.3.3 0 0 1-.389.287l-.061-.027-1.215-.701a1 1 0 0 1-.493-.748l-.007-.118V13.27a.3.3 0 0 1 .326-.3l.063.013Zm11.49-7.53 1.295.748a2.5 2.5 0 0 1 1.25 2.165v1.443a1 1 0 1 1-2 0V8.366a.5.5 0 0 0-.25-.433l-1.295-.748a1 1 0 0 1 1-1.732Zm-11.177.392a1 1 0 0 1-.366 1.366l-1.25.722a.5.5 0 0 0-.25.433v1.443a1 1 0 1 1-2 0V8.366A2.5 2.5 0 0 1 4.456 6.2l1.25-.722a1 1 0 0 1 1.366.366ZM12.5 5.79l1.215.701a.3.3 0 0 1 0 .52L12.5 7.71a1 1 0 0 1-1 0l-1.215-.701a.3.3 0 0 1 0-.52L11.5 5.79a1 1 0 0 1 1 0Zm.75-3.222 3.044 1.757a1 1 0 1 1-1 1.733L12.25 4.299a.5.5 0 0 0-.5 0L8.706 6.056a1 1 0 1 1-1-1.732l3.044-1.757a2.5 2.5 0 0 1 2.5 0Z"/></g></svg>
